icons/svg/arrow-download.svg

<svg width="24" height="24" viewBox="0 0 24 24" fill="none" xmlns="http://www.w3.org/2000/svg">
<path d="M12.0735 3.25V15.4147V15.7275M6.19119 10.4664L11.0129 15.2881C11.3058 15.581 11.6897 15.7275 12.0735 15.7275M17.9559 10.4664L13.1342 15.2881C12.8413 15.581 12.4574 15.7275 12.0735 15.7275" stroke="currentColor" stroke-width="1.5" stroke-linecap="round" stroke-linejoin="round"/>
<path d="M20.75 16.5147V17.45C20.75 19.2725 19.2725 20.75 17.45 20.75H6.55C4.72746 20.75 3.25 19.2725 3.25 17.45V16.5147" stroke="currentColor" stroke-width="1.5" stroke-linecap="round" stroke-linejoin="round"/>
</svg>

<svg xmlns="http://www.w3.org/2000/svg" width="24" height="24" fill="none" viewBox="0 0 24 24"><path stroke="currentColor" stroke-linecap="round" stroke-linejoin="round" stroke-width="1.5" d="M12.074 3.25v12.478M6.19 10.465l4.822 4.822c.293.293.677.44 1.06.44m5.883-5.262-4.822 4.822c-.293.293-.677.44-1.06.44m8.677.788v.935a3.3 3.3 0 0 1-3.3 3.3H6.55a3.3 3.3 0 0 1-3.3-3.3v-.935"/></svg>
